X: 3
T: The Farley Bridge
R: reel
M: 4/4
L: 1/8
K: D
z2 |\
Addf edef | gf f2 dAAG | FddA ffAe- | eddf gBBA |
FddA deef | gf f2 dGGA | edBe- efed | BA A6 :|
|: ef |\
gffd ddBg- | gffd ddAG | FddA ffAe | edde- effg |
gffd ddBg- | gffd ddBA | edBe- efed | BA A4 :|
